X: 101912
T: Jolly Tinker HP
S: "Roche Collection of Traditional Irish Music" [II/15/224]
L: 1/8
M: 4/4
R: hornpipe
K: G
G2 AG FGAc | B2 dB ecAF | G2 AG FGAc | BGAF GFED |
G2 AG FGAc | B2 dB ecAF | G2 AG FGAc | BcAF G2 Gz :|
Bd d2 ed d2 | egfa gedc | Bd d2 ed d2 | ABcA GFED |
Bd d2 ed d2 | egfa g2 ga | (3bag af gfed |1 egfa gedc :|2 egfa gedB ||
